(G-CODE GENERATED BY FLATCAM v8.992 - www.flatcam.org - Version Date: 2020/05/03)

(Name: PCBFonte.TXT_cnc)
(Type: G-code from Excellon)
(Units: MM)

(Created on Tuesday, 02 June 2020 at 17:32)

(This preprocessor is the default preprocessor used by FlatCAM.)
(It is made to work with MACH3 compatible motion controllers.)


(TOOLS DIAMETER: )
(Tool: 1 -> Dia: 0.7)
(Tool: 2 -> Dia: 0.711)
(Tool: 3 -> Dia: 0.762)
(Tool: 4 -> Dia: 0.8)
(Tool: 5 -> Dia: 0.813)
(Tool: 6 -> Dia: 0.85)
(Tool: 7 -> Dia: 0.9)
(Tool: 8 -> Dia: 1.2)
(Tool: 9 -> Dia: 1.524)
(Tool: 10 -> Dia: 2.0)
(Tool: 11 -> Dia: 3.0)
(Tool: 12 -> Dia: 3.6)

(FEEDRATE Z: )
(Tool: 1 -> Feedrate: 300)
(Tool: 2 -> Feedrate: 300)
(Tool: 3 -> Feedrate: 300)
(Tool: 4 -> Feedrate: 300)
(Tool: 5 -> Feedrate: 300)
(Tool: 6 -> Feedrate: 300)
(Tool: 7 -> Feedrate: 300)
(Tool: 8 -> Feedrate: 300)
(Tool: 9 -> Feedrate: 300)
(Tool: 10 -> Feedrate: 300)
(Tool: 11 -> Feedrate: 300)
(Tool: 12 -> Feedrate: 300)

(FEEDRATE RAPIDS: )
(Tool: 1 -> Feedrate Rapids: 1500)
(Tool: 2 -> Feedrate Rapids: 1500)
(Tool: 3 -> Feedrate Rapids: 1500)
(Tool: 4 -> Feedrate Rapids: 1500)
(Tool: 5 -> Feedrate Rapids: 1500)
(Tool: 6 -> Feedrate Rapids: 1500)
(Tool: 7 -> Feedrate Rapids: 1500)
(Tool: 8 -> Feedrate Rapids: 1500)
(Tool: 9 -> Feedrate Rapids: 1500)
(Tool: 10 -> Feedrate Rapids: 1500)
(Tool: 11 -> Feedrate Rapids: 1500)
(Tool: 12 -> Feedrate Rapids: 1500)

(Z_CUT: )
(Tool: 1 -> Z_Cut: -1.7)
(Tool: 2 -> Z_Cut: -1.7)
(Tool: 3 -> Z_Cut: -1.7)
(Tool: 4 -> Z_Cut: -1.7)
(Tool: 5 -> Z_Cut: -1.7)
(Tool: 6 -> Z_Cut: -1.7)
(Tool: 7 -> Z_Cut: -1.7)
(Tool: 8 -> Z_Cut: -1.7)
(Tool: 9 -> Z_Cut: -1.7)
(Tool: 10 -> Z_Cut: -1.7)
(Tool: 11 -> Z_Cut: -1.7)
(Tool: 12 -> Z_Cut: -1.7)

(Tools Offset: )
(Tool: 1 -> Offset Z: -0.0)
(Tool: 2 -> Offset Z: -0.0)
(Tool: 3 -> Offset Z: -0.0)
(Tool: 4 -> Offset Z: -0.0)
(Tool: 5 -> Offset Z: -0.0)
(Tool: 6 -> Offset Z: -0.0)
(Tool: 7 -> Offset Z: -0.0)
(Tool: 8 -> Offset Z: -0.0)
(Tool: 9 -> Offset Z: -0.0)
(Tool: 10 -> Offset Z: -0.0)
(Tool: 11 -> Offset Z: -0.0)
(Tool: 12 -> Offset Z: -0.0)

(Z_MOVE: )
(Tool: 1 -> Z_Move: 2)
(Tool: 2 -> Z_Move: 2)
(Tool: 3 -> Z_Move: 2)
(Tool: 4 -> Z_Move: 2)
(Tool: 5 -> Z_Move: 2)
(Tool: 6 -> Z_Move: 2)
(Tool: 7 -> Z_Move: 2)
(Tool: 8 -> Z_Move: 2)
(Tool: 9 -> Z_Move: 2)
(Tool: 10 -> Z_Move: 2)
(Tool: 11 -> Z_Move: 2)
(Tool: 12 -> Z_Move: 2)

(Z Start: None mm)
(Z End: 2.0 mm)
(Steps per circle: 64)
(Preprocessor Excellon: default)

(X range:    0.6445 ...   97.1750  mm)
(Y range:    3.2000 ...   69.2780  mm)

(Spindle Speed: None RPM)
G21
G90
G94



G00 Z2.0000

G01 F300.00
M03
G00 X28.5000 Y3.9600
G01 Z-1.7000
G01 Z0
G00 Z2.0000
G00 X28.5000 Y9.0400
G01 Z-1.7000
G01 Z0
G00 Z2.0000
G00 X87.4600 Y31.0280
G01 Z-1.7000
G01 Z0
G00 Z2.0000
G00 X92.5400 Y31.0280
G01 Z-1.7000
G01 Z0
G00 Z2.0000
G00 X72.2500 Y48.4600
G01 Z-1.7000
G01 Z0
G00 Z2.0000
G00 X72.2500 Y53.5400
G01 Z-1.7000
G01 Z0
G00 Z2.0000
G00 X16.8780 Y38.0680
G01 Z-1.7000
G01 Z0
G00 Z2.0000
G00 X16.8780 Y32.9880
G01 Z-1.7000
G01 Z0
G00 Z2.0000
G00 X3.0000 Y19.5400
G01 Z-1.7000
G01 Z0
G00 Z2.0000
G00 X3.0000 Y17.0000
G01 Z-1.7000
G01 Z0
G00 Z2.0000
G00 X3.0000 Y14.4600
G01 Z-1.7000
G01 Z0
G00 Z2.0000
G01 F300.00
M03
G00 X60.7500 Y33.2500
G01 Z-1.7000
G01 Z0
G00 Z2.0000
G00 X60.7500 Y38.5000
G01 Z-1.7000
G01 Z0
G00 Z2.0000
G00 X57.5000 Y40.2500
G01 Z-1.7000
G01 Z0
G00 Z2.0000
G00 X29.5000 Y50.0000
G01 Z-1.7000
G01 Z0
G00 Z2.0000
G00 X23.2500 Y37.0000
G01 Z-1.7000
G01 Z0
G00 Z2.0000
G00 X23.2500 Y33.0000
G01 Z-1.7000
G01 Z0
G00 Z2.0000
G00 X1.0000 Y27.0000
G01 Z-1.7000
G01 Z0
G00 Z2.0000
G00 X27.7500 Y22.7500
G01 Z-1.7000
G01 Z0
G00 Z2.0000
G00 X32.5000 Y22.7500
G01 Z-1.7000
G01 Z0
G00 Z2.0000
G00 X81.2500 Y20.5000
G01 Z-1.7000
G01 Z0
G00 Z2.0000
G01 F300.00
M03
G00 X79.0000 Y48.9200
G01 Z-1.7000
G01 Z0
G00 Z2.0000
G00 X79.0000 Y54.0000
G01 Z-1.7000
G01 Z0
G00 Z2.0000
G00 X27.5400 Y54.7500
G01 Z-1.7000
G01 Z0
G00 Z2.0000
G00 X25.0000 Y54.7500
G01 Z-1.7000
G01 Z0
G00 Z2.0000
G00 X19.5400 Y54.7500
G01 Z-1.7000
G01 Z0
G00 Z2.0000
G00 X17.0000 Y54.7500
G01 Z-1.7000
G01 Z0
G00 Z2.0000
G00 X27.2500 Y38.0160
G01 Z-1.7000
G01 Z0
G00 Z2.0000
G00 X27.2500 Y35.9840
G01 Z-1.7000
G01 Z0
G00 Z2.0000
G00 X49.0000 Y26.2500
G01 Z-1.7000
G01 Z0
G00 Z2.0000
G00 X49.0000 Y31.3300
G01 Z-1.7000
G01 Z0
G00 Z2.0000
G01 F300.00
M03
G00 X72.4600 Y7.0000
G01 Z-1.7000
G01 Z0
G00 Z2.0000
G00 X75.0000 Y7.0000
G01 Z-1.7000
G01 Z0
G00 Z2.0000
G00 X72.4600 Y16.0000
G01 Z-1.7000
G01 Z0
G00 Z2.0000
G00 X75.0000 Y16.0000
G01 Z-1.7000
G01 Z0
G00 Z2.0000
G01 F300.00
M03
G00 X77.0000 Y30.8680
G01 Z-1.7000
G01 Z0
G00 Z2.0000
G00 X77.0000 Y41.0280
G01 Z-1.7000
G01 Z0
G00 Z2.0000
G00 X20.4780 Y38.7380
G01 Z-1.7000
G01 Z0
G00 Z2.0000
G00 X12.9600 Y46.6500
G01 Z-1.7000
G01 Z0
G00 Z2.0000
G00 X2.8000 Y46.6500
G01 Z-1.7000
G01 Z0
G00 Z2.0000
G00 X20.4780 Y28.5780
G01 Z-1.7000
G01 Z0
G00 Z2.0000
G01 F300.00
M03
G00 X7.5000 Y9.1700
G01 Z-1.7000
G01 Z0
G00 Z2.0000
G00 X7.5000 Y19.3300
G01 Z-1.7000
G01 Z0
G00 Z2.0000
G00 X5.7980 Y28.5280
G01 Z-1.7000
G01 Z0
G00 Z2.0000
G00 X2.7500 Y29.4480
G01 Z-1.7000
G01 Z0
G00 Z2.0000
G00 X2.7500 Y39.6080
G01 Z-1.7000
G01 Z0
G00 Z2.0000
G00 X2.6700 Y42.7500
G01 Z-1.7000
G01 Z0
G00 Z2.0000
G00 X12.8300 Y42.7500
G01 Z-1.7000
G01 Z0
G00 Z2.0000
G00 X13.2500 Y49.1700
G01 Z-1.7000
G01 Z0
G00 Z2.0000
G00 X13.2500 Y59.3300
G01 Z-1.7000
G01 Z0
G00 Z2.0000
G00 X89.0000 Y56.0800
G01 Z-1.7000
G01 Z0
G00 Z2.0000
G00 X89.0000 Y45.9200
G01 Z-1.7000
G01 Z0
G00 Z2.0000
G00 X96.7500 Y42.4100
G01 Z-1.7000
G01 Z0
G00 Z2.0000
G00 X96.7500 Y32.2500
G01 Z-1.7000
G01 Z0
G00 Z2.0000
G00 X83.0000 Y41.1880
G01 Z-1.7000
G01 Z0
G00 Z2.0000
G00 X80.0000 Y41.1080
G01 Z-1.7000
G01 Z0
G00 Z2.0000
G00 X83.0000 Y31.0280
G01 Z-1.7000
G01 Z0
G00 Z2.0000
G00 X80.0000 Y30.9480
G01 Z-1.7000
G01 Z0
G00 Z2.0000
G00 X79.0000 Y18.0800
G01 Z-1.7000
G01 Z0
G00 Z2.0000
G00 X83.7500 Y17.9100
G01 Z-1.7000
G01 Z0
G00 Z2.0000
G00 X83.7500 Y7.7500
G01 Z-1.7000
G01 Z0
G00 Z2.0000
G00 X79.0000 Y7.9200
G01 Z-1.7000
G01 Z0
G00 Z2.0000
G00 X49.2500 Y10.6700
G01 Z-1.7000
G01 Z0
G00 Z2.0000
G00 X49.2500 Y20.8300
G01 Z-1.7000
G01 Z0
G00 Z2.0000
G00 X15.9580 Y28.5280
G01 Z-1.7000
G01 Z0
G00 Z2.0000
G01 F300.00
M03
G00 X93.7500 Y34.1580
G01 Z-1.7000
G01 Z0
G00 Z2.0000
G00 X93.7500 Y36.6980
G01 Z-1.7000
G01 Z0
G00 Z2.0000
G00 X93.7500 Y39.2380
G01 Z-1.7000
G01 Z0
G00 Z2.0000
G00 X93.7500 Y41.7780
G01 Z-1.7000
G01 Z0
G00 Z2.0000
G00 X86.0000 Y47.7500
G01 Z-1.7000
G01 Z0
G00 Z2.0000
G00 X86.0000 Y54.7500
G01 Z-1.7000
G01 Z0
G00 Z2.0000
G00 X26.7900 Y49.6480
G01 Z-1.7000
G01 Z0
G00 Z2.0000
G00 X24.2500 Y49.6480
G01 Z-1.7000
G01 Z0
G00 Z2.0000
G00 X21.7100 Y49.6480
G01 Z-1.7000
G01 Z0
G00 Z2.0000
G00 X19.1700 Y49.6480
G01 Z-1.7000
G01 Z0
G00 Z2.0000
G00 X26.7900 Y42.0280
G01 Z-1.7000
G01 Z0
G00 Z2.0000
G00 X24.2500 Y42.0280
G01 Z-1.7000
G01 Z0
G00 Z2.0000
G00 X21.7100 Y42.0280
G01 Z-1.7000
G01 Z0
G00 Z2.0000
G00 X19.1700 Y42.0280
G01 Z-1.7000
G01 Z0
G00 Z2.0000
G00 X13.6870 Y39.3380
G01 Z-1.7000
G01 Z0
G00 Z2.0000
G00 X11.1470 Y39.3380
G01 Z-1.7000
G01 Z0
G00 Z2.0000
G00 X8.6070 Y39.3380
G01 Z-1.7000
G01 Z0
G00 Z2.0000
G00 X6.0670 Y39.3380
G01 Z-1.7000
G01 Z0
G00 Z2.0000
G00 X6.0670 Y31.7180
G01 Z-1.7000
G01 Z0
G00 Z2.0000
G00 X8.6070 Y31.7180
G01 Z-1.7000
G01 Z0
G00 Z2.0000
G00 X11.1470 Y31.7180
G01 Z-1.7000
G01 Z0
G00 Z2.0000
G00 X13.6870 Y31.7180
G01 Z-1.7000
G01 Z0
G00 Z2.0000
G00 X24.5000 Y27.5400
G01 Z-1.7000
G01 Z0
G00 Z2.0000
G00 X24.5000 Y26.2700
G01 Z-1.7000
G01 Z0
G00 Z2.0000
G00 X24.5000 Y25.0000
G01 Z-1.7000
G01 Z0
G00 Z2.0000
G00 X86.1300 Y41.7780
G01 Z-1.7000
G01 Z0
G00 Z2.0000
G00 X86.1300 Y39.2380
G01 Z-1.7000
G01 Z0
G00 Z2.0000
G00 X86.1300 Y36.6980
G01 Z-1.7000
G01 Z0
G00 Z2.0000
G00 X86.1300 Y34.1580
G01 Z-1.7000
G01 Z0
G00 Z2.0000
G01 F300.00
M03
G00 X95.2500 Y48.5190
G01 Z-1.7000
G01 Z0
G00 Z2.0000
G00 X95.2500 Y53.5280
G01 Z-1.7000
G01 Z0
G00 Z2.0000
G00 X87.5090 Y64.7780
G01 Z-1.7000
G01 Z0
G00 Z2.0000
G00 X82.5000 Y64.7780
G01 Z-1.7000
G01 Z0
G00 Z2.0000
G00 X77.4910 Y64.7780
G01 Z-1.7000
G01 Z0
G00 Z2.0000
G00 X29.0090 Y64.7500
G01 Z-1.7000
G01 Z0
G00 Z2.0000
G00 X24.0000 Y64.7500
G01 Z-1.7000
G01 Z0
G00 Z2.0000
G00 X17.2590 Y64.7500
G01 Z-1.7000
G01 Z0
G00 Z2.0000
G00 X12.2500 Y64.7500
G01 Z-1.7000
G01 Z0
G00 Z2.0000
G00 X3.6700 Y55.5000
G01 Z-1.7000
G01 Z0
G00 Z2.0000
G00 X6.2100 Y55.5000
G01 Z-1.7000
G01 Z0
G00 Z2.0000
G00 X8.7500 Y55.5000
G01 Z-1.7000
G01 Z0
G00 Z2.0000
G00 X72.2500 Y33.5280
G01 Z-1.7000
G01 Z0
G00 Z2.0000
G00 X72.2500 Y36.0680
G01 Z-1.7000
G01 Z0
G00 Z2.0000
G00 X72.2500 Y38.6080
G01 Z-1.7000
G01 Z0
G00 Z2.0000
G01 F300.00
M03
G00 X12.9200 Y4.0000
G01 Z-1.7000
G01 Z0
G00 Z2.0000
G00 X18.0000 Y4.0000
G01 Z-1.7000
G01 Z0
G00 Z2.0000
G00 X23.0800 Y4.0000
G01 Z-1.7000
G01 Z0
G00 Z2.0000
G00 X38.9200 Y4.0000
G01 Z-1.7000
G01 Z0
G00 Z2.0000
G00 X44.0000 Y4.0000
G01 Z-1.7000
G01 Z0
G00 Z2.0000
G00 X54.9200 Y4.0000
G01 Z-1.7000
G01 Z0
G00 Z2.0000
G00 X60.0000 Y4.0000
G01 Z-1.7000
G01 Z0
G00 Z2.0000
G00 X65.0800 Y4.0000
G01 Z-1.7000
G01 Z0
G00 Z2.0000
G00 X33.8400 Y4.0000
G01 Z-1.7000
G01 Z0
G00 Z2.0000
G01 F300.00
M03
G00 X68.9300 Y46.2500
G01 Z-1.7000
G01 Z0
G00 Z2.0000
G00 X68.9300 Y56.5000
G01 Z-1.7000
G01 Z0
G00 Z2.0000
G00 X33.0000 Y56.5000
G01 Z-1.7000
G01 Z0
G00 Z2.0000
G00 X33.0000 Y46.2500
G01 Z-1.7000
G01 Z0
G00 Z2.0000
G01 F300.00
M03
G00 X33.2500 Y33.7780
G01 Z-1.7000
G01 Z0
G00 Z2.0000
G00 X67.2500 Y67.7780
G01 Z-1.7000
G01 Z0
G00 Z2.0000
G01 F300.00
M03
G00 X5.0000 Y5.0000
G01 Z-1.7000
G01 Z0
G00 Z2.0000
G00 X4.7500 Y65.0280
G01 Z-1.7000
G01 Z0
G00 Z2.0000
G00 X94.7500 Y65.0280
G01 Z-1.7000
G01 Z0
G00 Z2.0000
G00 X95.0000 Y5.0000
G01 Z-1.7000
G01 Z0
G00 Z2.0000
M05
G00 Z2.00

